X: 57
T:Reverend Brother's Jig, The
T:Sonny Brogan's #1
T:Sonny Brogan's Fancy
M:6/8
L:1/8
R:Double Jig
Z:
K:ADor
~A3 cBc|dcd e3|ABA cde|dcA GED|!
EAB c2e|dcd ~e3|aba ged|cAG A3:|!
|:eaa aba|gef ged|eaa aba|ged cAG|!
Aaa aba|gef ~g3|aba ged|cAG A3:|]!
